source/img/icon-fb--green.svg

<svg height="28" viewBox="0 0 16 28" width="16" xmlns="http://www.w3.org/2000/svg"><path d="m12.181 6.188c1.026.029 1.993 0 2.681-.3.391-.818.556-1.854.619-2.989-.19-.015-.062-.337-.207-.399-.029-.202-.278-.195-.309-.398-.277-.165-.457-.422-.723-.598-.727-.162-1.44-.335-2.164-.499-.849.044-1.895-.103-2.58.1-2.619-.04-3.997 1.12-5.259 2.392-.023.078-.003.197-.105.199-.574 1.587-.125 3.621-.204 5.581.099.436.107.958.204 1.395-.998.296-2.212.387-3.402.499-.317.324-.178 1.089-.206 1.693.085.583.278 1.06.413 1.595.211.193.596.396.825.498.065.029.071.082.103.1.506.268 1.451.008 2.268.1-.136 1.978.256 3.915 0 5.68.007.327.295.382.208.798-.001.963-.067 1.99.208 2.69-.287.455-.497.982-.415 1.794.122.016.114.157.105.299-.075.47.643.175.515.698.162.456-.428.184-.413.498v.896c.53.285 1.462.182 2.268.199.908-.419 2.188-.479 2.785-1.196.459.235.916-.014 1.238-.199-.018-.315.273-.333.205-.698-.004-.328-.173-.496-.103-.896v-2.89c-.206-2.293-.048-4.938-.309-7.176.888-.105 1.917-.075 2.578-.398.357-.451.377-1.23.516-1.895.177-.226.221-.583.206-.996.19-.213.068-.729.104-1.096-.141-.595-.168-1.3-.825-1.39-.884-.235-2.043.595-2.991.299.049-1.134-.293-2.342 0-3.388.746-.181 1.446-.4 2.166-.602zm-3.818 4.783c.117.254.254.486.414.698.079.022.203.003.205.101 1.192.056 2.199-.069 3.096-.299 0 .998-.271 1.733-.518 2.492-.662.045-1.467.3-1.958.198-.276.165-.372.506-.62.698-.049.441.142.495 0 .797-.201.137-.055.611-.205.796v1.496c.085.281-.146.258-.104.497v3.488c-.085.281.146.258.104.498v2.989c.063.271-.132.791.103.896-.07.364-.412-.021-.824.1-.528.122-.926.369-1.548.4.117-.353.32-.622.311-1.097.049-.381-.365-.312-.516-.49.193-.644.562-1.117.722-1.793.197-.515.714-1.298.31-1.794-.522-.105-.521.293-.826.398-.022.077-.002.196-.103.199-.023.077-.003.196-.103.199.01.12-.151.062 0 0 .022-.078.002-.197.103-.199.023-.077.002-.197.103-.199v-.299c.368-.575.67-1.214.826-1.993.191-.28.283-.656.412-.997.156-.262.34-.869.104-1.195-.517.033-.796.295-.93.697-.32-.189.161-.434.104-.697.138-.231.169-.566.309-.797.202-.413.564-1.304 0-1.596-.438-.023-.612.207-.723.498-.214.191-.43.383-.516.698-.373-.07-.143-.727-.206-1.097-.067-.52.122-.899 0-1.195-.56-.799-2.026-.105-3.197-.299-.108-.307-.222-.984-.104-1.195 1.045-.088 2.479.201 3.197-.199.024-.078.003-.197.104-.199.094-.723-.271-1-.515-1.396.232-.806.04-2.02.104-2.989.233-.141.328-.414.515-.598.112-.955.673-1.476.722-2.49-.273.001-.607-.055-.619.199-.302-.114-.382.479-.515.199-.112-.541.246-.626.309-.997.599-.418 1.212-.82 1.856-1.195 1.741-.244 4.648-.449 6.086.198.051.616-.287.854-.207 1.496h-1.546c-1.092.24-1.987.672-2.991.997-.24.066-.276.331-.516.398-.036.396-.225.646-.311.996-.079 1.431.133 2.589.102 3.978z" fill="#46c1ae" fill-rule="evenodd" transform="translate(0 -1)"/></svg>

<?xml version="1.0" encoding="UTF-8"?>
<svg width="16px" height="28px" viewBox="0 0 16 28" version="1.1" xmlns="http://www.w3.org/2000/svg" xmlns:xlink="http://www.w3.org/1999/xlink">
    <!-- Generator: Sketch 52.2 (67145) - http://www.bohemiancoding.com/sketch -->
    <title>Shape</title>
    <desc>Created with Sketch.</desc>
    <g id="Symbols" stroke="none" stroke-width="1" fill="none" fill-rule="evenodd">
        <g id="icon-fb-color" transform="translate(0.000000, -1.000000)" fill="#46C1AE">
            <path d="M12.181,6.188 C13.207,6.217 14.174,6.188 14.862,5.888 C15.253,5.07 15.418,4.034 15.481,2.899 C15.291,2.884 15.419,2.562 15.274,2.5 C15.245,2.298 14.996,2.305 14.965,2.102 C14.688,1.937 14.508,1.68 14.242,1.504 C13.515,1.342 12.802,1.169 12.078,1.005 C11.229,1.049 10.183,0.902 9.498,1.105 C6.879,1.065 5.501,2.225 4.239,3.497 C4.216,3.575 4.236,3.694 4.134,3.696 C3.56,5.283 4.009,7.317 3.93,9.277 C4.029,9.713 4.037,10.235 4.134,10.672 C3.136,10.968 1.922,11.059 0.732,11.171 C0.415,11.495 0.554,12.26 0.526,12.864 C0.611,13.447 0.804,13.924 0.939,14.459 C1.15,14.652 1.535,14.855 1.764,14.957 C1.829,14.986 1.835,15.039 1.867,15.057 C2.373,15.325 3.318,15.065 4.135,15.157 C3.999,17.135 4.391,19.072 4.135,20.837 C4.142,21.164 4.43,21.219 4.343,21.635 C4.342,22.598 4.276,23.625 4.551,24.325 C4.264,24.78 4.054,25.307 4.136,26.119 C4.258,26.135 4.25,26.276 4.241,26.418 C4.166,26.888 4.884,26.593 4.756,27.116 C4.918,27.572 4.328,27.3 4.343,27.614 L4.343,28.51 C4.873,28.795 5.805,28.692 6.611,28.709 C7.519,28.29 8.799,28.23 9.396,27.513 C9.855,27.748 10.312,27.499 10.634,27.314 C10.616,26.999 10.907,26.981 10.839,26.616 C10.835,26.288 10.666,26.12 10.736,25.72 L10.736,22.83 C10.53,20.537 10.688,17.892 10.427,15.654 C11.315,15.549 12.344,15.579 13.005,15.256 C13.362,14.805 13.382,14.026 13.521,13.361 C13.698,13.135 13.742,12.778 13.727,12.365 C13.917,12.152 13.795,11.636 13.831,11.269 C13.69,10.674 13.663,9.969 13.006,9.879 C12.122,9.644 10.963,10.474 10.015,10.178 C10.064,9.044 9.722,7.836 10.015,6.79 C10.761,6.609 11.461,6.39 12.181,6.188 Z M8.363,10.971 C8.48,11.225 8.617,11.457 8.777,11.669 C8.856,11.691 8.98,11.672 8.982,11.77 C10.174,11.826 11.181,11.701 12.078,11.471 C12.078,12.469 11.807,13.204 11.56,13.963 C10.898,14.008 10.093,14.263 9.602,14.161 C9.326,14.326 9.23,14.667 8.982,14.859 C8.933,15.3 9.124,15.354 8.982,15.656 C8.781,15.793 8.927,16.267 8.777,16.452 L8.777,17.948 C8.862,18.229 8.631,18.206 8.673,18.445 L8.673,21.933 C8.588,22.214 8.819,22.191 8.777,22.431 L8.777,25.42 C8.84,25.691 8.645,26.211 8.88,26.316 C8.81,26.68 8.468,26.295 8.056,26.416 C7.528,26.538 7.13,26.785 6.508,26.816 C6.625,26.463 6.828,26.194 6.819,25.719 C6.868,25.338 6.454,25.407 6.303,25.229 C6.496,24.585 6.865,24.112 7.025,23.436 C7.222,22.921 7.739,22.138 7.335,21.642 C6.813,21.537 6.814,21.935 6.509,22.04 C6.487,22.117 6.507,22.236 6.406,22.239 C6.383,22.316 6.403,22.435 6.303,22.438 C6.313,22.558 6.152,22.5 6.303,22.438 C6.325,22.36 6.305,22.241 6.406,22.239 C6.429,22.162 6.408,22.042 6.509,22.04 L6.509,21.741 C6.877,21.166 7.179,20.527 7.335,19.748 C7.526,19.468 7.618,19.092 7.747,18.751 C7.903,18.489 8.087,17.882 7.851,17.556 C7.334,17.589 7.055,17.851 6.921,18.253 C6.601,18.064 7.082,17.819 7.025,17.556 C7.163,17.325 7.194,16.99 7.334,16.759 C7.536,16.346 7.898,15.455 7.334,15.163 C6.896,15.14 6.722,15.37 6.611,15.661 C6.397,15.852 6.181,16.044 6.095,16.359 C5.722,16.289 5.952,15.632 5.889,15.262 C5.822,14.742 6.011,14.363 5.889,14.067 C5.329,13.268 3.863,13.962 2.692,13.768 C2.584,13.461 2.47,12.784 2.588,12.573 C3.633,12.485 5.067,12.774 5.785,12.374 C5.809,12.296 5.788,12.177 5.889,12.175 C5.983,11.452 5.618,11.175 5.374,10.779 C5.606,9.973 5.414,8.759 5.478,7.79 C5.711,7.649 5.806,7.376 5.993,7.192 C6.105,6.237 6.666,5.716 6.715,4.702 C6.442,4.703 6.108,4.647 6.096,4.901 C5.794,4.787 5.714,5.38 5.581,5.1 C5.469,4.559 5.827,4.474 5.89,4.103 C6.489,3.685 7.102,3.283 7.746,2.908 C9.487,2.664 12.394,2.459 13.832,3.106 C13.883,3.722 13.545,3.96 13.625,4.602 L12.079,4.602 C10.987,4.842 10.092,5.274 9.088,5.599 C8.848,5.665 8.812,5.93 8.572,5.997 C8.536,6.393 8.347,6.643 8.261,6.993 C8.182,8.424 8.394,9.582 8.363,10.971 Z" id="Shape"></path>
        </g>
    </g>
</svg>
